packages/crs-framework/resources/svg/preview.svg

<svg width="24" height="24" xmlns="http://www.w3.org/2000/svg"><path d="M19 3H5a2 2 0 0 0-2 2v14a2 2 0 0 0 2 2h14c1.1 0 2-.9 2-2V5a2 2 0 0 0-2-2Zm0 16H5V7h14v12Zm-5.5-6c0 .83-.67 1.5-1.5 1.5s-1.5-.67-1.5-1.5.67-1.5 1.5-1.5 1.5.67 1.5 1.5ZM12 9c-2.73 0-5.06 1.66-6 4 .94 2.34 3.27 4 6 4s5.06-1.66 6-4c-.94-2.34-3.27-4-6-4Zm0 6.5a2.5 2.5 0 0 1 0-5 2.5 2.5 0 0 1 0 5Z"/></svg>

<svg width="24" height="24" viewBox="0 0 24 24" fill="none" xmlns="http://www.w3.org/2000/svg">
<path d="M19 3H5C3.89 3 3 3.9 3 5V19C3 20.1 3.89 21 5 21H19C20.1 21 21 20.1 21 19V5C21 3.9 20.11 3 19 3ZM19 19H5V7H19V19ZM13.5 13C13.5 13.83 12.83 14.5 12 14.5C11.17 14.5 10.5 13.83 10.5 13C10.5 12.17 11.17 11.5 12 11.5C12.83 11.5 13.5 12.17 13.5 13ZM12 9C9.27 9 6.94 10.66 6 13C6.94 15.34 9.27 17 12 17C14.73 17 17.06 15.34 18 13C17.06 10.66 14.73 9 12 9ZM12 15.5C10.62 15.5 9.5 14.38 9.5 13C9.5 11.62 10.62 10.5 12 10.5C13.38 10.5 14.5 11.62 14.5 13C14.5 14.38 13.38 15.5 12 15.5Z" fill="#272C37"/>
</svg>
